projects/ccf-eui/src/assets/icons/organ-icons/organ-icon-palatine-tonsil.svg

<svg width="64" height="64" viewBox="0 0 64 64" fill="currentColor" xmlns="http://www.w3.org/2000/svg">
<g clip-path="url(#clip0_1795_489)">
<path d="M47.9476 26.0042C47.9476 26.0042 47.9274 26.0042 47.9072 25.984C47.8667 25.5395 47.2401 18.7702 45.7644 15.5573C45.7442 15.4967 45.7038 15.4361 45.6431 15.3957C44.3696 14.3247 43.4195 14.7693 42.8939 15.0117C42.8131 15.0522 42.6918 15.0926 42.7322 15.1128C41.9236 14.8703 41.2161 15.0724 40.8118 15.6584C40.4075 16.2039 40.3873 17.0324 40.6905 17.7397C39.9628 18.2044 39.8213 18.8106 39.801 19.1541C39.7808 19.5987 39.9426 20.0432 40.2256 20.3868C39.9426 20.6494 39.7606 21.0334 39.7606 21.4577C39.7606 21.9831 40.0436 22.6499 40.8522 23.0338C40.7309 23.1753 40.6299 23.3773 40.6703 23.5996C40.6905 23.7815 40.7916 23.9229 40.9533 24.0644C40.9937 24.3877 41.1352 24.7918 41.4789 25.1353C42.0651 25.6809 42.995 25.8628 44.2685 25.6809C44.6526 26.2669 45.5016 27.1358 46.2496 27.3783C46.4113 27.4389 46.573 27.4591 46.7347 27.4591C47.2401 27.4591 47.705 27.1964 48.0689 26.6711C48.2104 26.469 48.1498 26.1861 47.9476 26.0446V26.0042Z" />
<path d="M35.6772 28.1663C35.6166 28.3078 35.5761 28.7119 35.5559 28.8332C35.5357 28.8938 34.7878 30.6316 35.6166 36.5522C35.657 36.7946 35.4751 36.9967 35.2527 37.0371C35.2325 37.0371 35.2123 37.0371 35.1921 37.0371C34.9899 37.0371 34.7878 36.8755 34.7675 36.6734C33.8983 30.3487 34.7675 28.7523 34.7878 28.4897C34.7878 28.4088 34.8484 28.2876 34.909 28.1663C34.909 28.1663 34.9293 28.1259 34.909 28.0855C34.8888 28.0451 32.6854 28.0047 32.6854 28.0047C32.1801 28.0047 31.5736 28.0047 30.8054 27.9643C26.0954 27.7016 24.2963 29.8031 23.7909 30.5912C23.5483 30.7124 23.5483 31.0963 23.5483 31.9854C23.5483 33.5413 23.7101 37.5625 25.2464 41.1795C27.0859 45.5038 30.3203 47.8073 34.6058 47.8073C39.4372 47.8073 45.4207 45.0188 46.4719 31.7834C46.4719 31.5611 46.4921 31.3792 46.5123 31.2782C46.573 31.157 46.5932 31.0155 46.5325 30.8943C46.5325 30.8539 46.4921 30.8134 46.4517 30.773C45.724 29.4192 42.1662 27.7622 39.0935 27.7622C37.8402 27.7622 36.7688 27.9643 36.0006 28.1259C36.0006 28.1259 35.7176 28.1057 35.6772 28.1663Z" />
<path d="M34.2218 51C20.314 51 19.4852 30.6316 19.4852 30.4295C19.4852 30.1668 19.6874 29.9243 19.9502 29.9243C20.2534 29.9243 20.4555 30.1264 20.4555 30.4093C20.4555 30.6114 21.2439 50.0301 34.2218 50.0301C47.1997 50.0301 48.5945 36.8755 49.2818 30.5508L49.3222 30.2477C49.3425 29.985 49.5648 29.7627 49.868 29.8233C50.1308 29.8435 50.333 30.086 50.2926 30.3689L50.2521 30.672C49.585 36.7542 48.0487 51.0202 34.2218 51.0202V51Z" />
<path d="M50.2521 28.0047C49.8882 28.0047 49.5648 27.7218 49.5042 27.3581C47.8061 15.3553 45.2995 9.51551 41.8428 9.51551C38.386 9.51551 38.1637 10.9906 38.0424 12.8496C37.9211 14.3449 37.7796 16.406 34.9495 16.406C32.4833 16.406 32.2407 14.5066 32.0588 13.1123C31.796 11.1725 31.5737 9.51551 27.5509 9.51551C24.7006 9.51551 22.3153 15.3755 20.5162 26.9337C20.4555 27.3581 20.0714 27.641 19.6469 27.5602C19.2426 27.4995 18.9596 27.1156 19.0203 26.6913C21.0417 13.7589 23.6697 8 27.5711 8C32.928 8 33.3121 10.9502 33.5749 12.9102C33.7973 14.5066 33.9388 14.8905 34.9697 14.8905C36.3241 14.8905 36.4252 14.3651 36.5465 12.7486C36.688 10.8492 36.8901 8 41.863 8C46.3304 8 49.1403 13.9004 51.0001 27.1358C51.0607 27.5602 50.7777 27.9441 50.3532 27.9845C50.3128 27.9845 50.2723 27.9845 50.2521 27.9845V28.0047Z" />
</g>
<defs>
<clipPath id="clip0_1795_489">
<rect width="32" height="43"  transform="translate(19 8)"/>
</clipPath>
</defs>
</svg>

<svg xmlns="http://www.w3.org/2000/svg" width="64" height="64" fill="currentColor" viewBox="0 0 64 64"><g clip-path="url(#a)"><path d="M47.948 26.004s-.02 0-.04-.02c-.041-.445-.668-7.214-2.144-10.427a.3.3 0 0 0-.12-.161c-1.274-1.071-2.224-.627-2.75-.384-.08.04-.202.08-.162.1-.808-.242-1.516-.04-1.92.546-.404.546-.425 1.374-.121 2.082-.728.464-.87 1.07-.89 1.414-.02.445.142.89.425 1.233a1.46 1.46 0 0 0-.465 1.07c0 .526.283 1.193 1.091 1.577-.121.141-.222.343-.182.566.02.181.122.323.283.464.04.324.182.728.526 1.071q.879.819 2.79.546c.384.586 1.233 1.455 1.98 1.697.162.06.324.081.486.081.505 0 .97-.263 1.334-.788a.454.454 0 0 0-.121-.626zM35.677 28.166c-.06.142-.1.546-.121.667-.02.06-.768 1.799.06 7.72.041.242-.14.444-.363.484h-.06c-.203 0-.405-.161-.425-.364-.87-6.324 0-7.92.02-8.183 0-.081.06-.202.121-.324 0 0 .02-.04 0-.08s-2.224-.081-2.224-.081c-.505 0-1.111 0-1.88-.04-4.71-.263-6.509 1.838-7.014 2.626-.243.121-.243.505-.243 1.394 0 1.556.162 5.578 1.698 9.194 1.84 4.325 5.074 6.628 9.36 6.628 4.831 0 10.815-2.788 11.866-16.024 0-.222.02-.404.04-.505.061-.121.081-.262.02-.384 0-.04-.04-.08-.08-.121-.728-1.354-4.286-3.01-7.358-3.01-1.254 0-2.325.201-3.093.363 0 0-.283-.02-.324.04"/><path d="M34.222 51c-13.908 0-14.737-20.368-14.737-20.57 0-.263.202-.506.465-.506.303 0 .506.202.506.485 0 .202.788 19.621 13.766 19.621s14.372-13.154 15.06-19.48l.04-.302c.02-.263.243-.485.546-.425.263.02.465.263.425.546l-.04.303c-.668 6.082-2.204 20.348-16.031 20.348zM50.252 28.005a.78.78 0 0 1-.748-.647C47.806 15.355 45.3 9.516 41.843 9.516s-3.68 1.475-3.8 3.334c-.122 1.495-.263 3.556-3.093 3.556-2.467 0-2.71-1.9-2.891-3.294-.263-1.94-.485-3.596-4.508-3.596-2.85 0-5.236 5.86-7.035 17.418a.73.73 0 0 1-.87.626.76.76 0 0 1-.626-.869C21.042 13.76 23.67 8 27.571 8c5.357 0 5.741 2.95 6.004 4.91.222 1.597.364 1.98 1.395 1.98 1.354 0 1.455-.525 1.577-2.141.141-1.9.343-4.749 5.316-4.749C46.33 8 49.14 13.9 51 27.136c.06.424-.222.808-.647.849h-.1z"/></g><defs><clipPath id="a"><path d="M19 8h32v43H19z"/></clipPath></defs></svg>
